public/topics/5.svg

<svg width="250" height="250" viewBox="0 0 250 250" fill="none" xmlns="http://www.w3.org/2000/svg">
<rect width="250" height="250" rx="30" fill="#996633"/>
<path d="M110 90.2C109.067 93.9333 108.467 98.8667 108.2 105C107.933 110.333 107.533 114.333 107 117C110.867 115.4 114.533 114.4 118 114C121.467 113.467 125.867 113.2 131.2 113.2C139.467 113.2 146.667 115.133 152.8 119C158.933 122.733 163.6 127.8 166.8 134.2C170 140.467 171.6 147.2 171.6 154.4C171.6 157.2 170.667 161 168.8 165.8C166.933 170.467 165 174.067 163 176.6C158.333 182.733 152.933 187.467 146.8 190.8C140.667 194 134 195.6 126.8 195.6C121.333 195.6 116.333 194.867 111.8 193.4C107.4 191.8 102.667 189.667 97.6 187C92.4 184.2 88.6 181.333 86.2 178.4C83.9333 175.333 82.8 171.533 82.8 167C82.8 164.6 83.8 162.667 85.8 161.2C87.9333 159.6 89.9333 158.8 91.8 158.8C93 158.8 94.0667 159.133 95 159.8C95.9333 160.467 97.4667 161.8 99.6 163.8L104.6 168.6C107.8 171.267 110.933 173.267 114 174.6C117.2 175.933 121.067 176.6 125.6 176.6C129.733 176.6 133.067 176.067 135.6 175C140.667 173 144.6 170.4 147.4 167.2C150.333 164 151.8 158.867 151.8 151.8C151.8 145 149.533 139.733 145 136C140.467 132.133 132.8 130.2 122 130.2C120.533 130.2 118.4 130.6 115.6 131.4C112.8 132.2 110.067 133.067 107.4 134C101 136.133 97.0667 137.2 95.6 137.2C93.7333 137.2 91.8667 136.4 90 134.8C88.1333 133.2 87.2 131.067 87.2 128.4C89.6 112.267 90.8 98.8667 90.8 88.2L90.6 83.2C90.3333 80.8 90.2 78.8 90.2 77.2C90.2 74.8 91.4667 73 94 71.8C96.6667 70.4667 99.4 69.8 102.2 69.8C104.6 69.8 109.8 70.2 117.8 71L127.4 71.8C128.6 71.9333 130.4 72 132.8 72L140.2 71.8C141.667 71.6667 143.8 71.6 146.6 71.6C150.6 71.6 153.933 72.2 156.6 73.4C159.267 74.6 160.6 76.5333 160.6 79.2C160.6 83.3333 159.933 86.3333 158.6 88.2C157.267 90.0667 155.733 91 154 91C152.4 91 149.733 90.7333 146 90.2C141.067 89.6667 135.267 89.4 128.6 89.4C123.933 89.4 117.733 89.6667 110 90.2Z" fill="white"/>
</svg>

<svg xmlns="http://www.w3.org/2000/svg" width="250" height="250" fill="none" viewBox="0 0 250 250"><rect width="250" height="250" fill="#963" rx="30"/><path fill="#fff" d="M110 90.2q-1.4 5.6-1.8 14.8-.4 8-1.2 12 5.8-2.4 11-3 5.2-.8 13.2-.8 12.4 0 21.6 5.8 9.2 5.6 14 15.2 4.8 9.4 4.8 20.2 0 4.2-2.8 11.4-2.8 7-5.8 10.8-7 9.2-16.2 14.2-9.2 4.8-20 4.8-8.2 0-15-2.2-6.6-2.4-14.2-6.4-7.8-4.2-11.4-8.6-3.4-4.6-3.4-11.4 0-3.6 3-5.8 3.2-2.4 6-2.4 1.8 0 3.2 1t4.6 4l5 4.8q4.8 4 9.4 6 4.8 2 11.6 2 6.2 0 10-1.6 7.6-3 11.8-7.8 4.4-4.8 4.4-15.4 0-10.2-6.8-15.8-6.8-5.8-23-5.8-2.2 0-6.4 1.2t-8.2 2.6q-9.6 3.2-11.8 3.2-2.8 0-5.6-2.4t-2.8-6.4q3.6-24.2 3.6-40.2l-.2-5q-.4-3.6-.4-6 0-3.6 3.8-5.4 4-2 8.2-2 3.6 0 15.6 1.2l9.6.8q1.8.2 5.4.2l7.4-.2q2.2-.2 6.4-.2 6 0 10 1.8t4 5.8q0 6.2-2 9T154 91q-2.4 0-8-.8-7.4-.8-17.4-.8-7 0-18.6.8"/></svg>
